public/images/icons/meilisearch-icon.svg

<svg fill="none" height="300" viewBox="0 0 300 300" width="300" xmlns="http://www.w3.org/2000/svg" xmlns:xlink="http://www.w3.org/1999/xlink"><linearGradient id="a" gradientUnits="userSpaceOnUse" x1="300.001" x2="1.63474" y1="50.7858" y2="221.244"><stop offset="0" stop-color="#ff5caa"/><stop offset="1" stop-color="#ff4e62"/></linearGradient><g fill="url(#a)"><path d="m0 237 55.426-140.2322c7.8107-19.7615 27.073-32.7678 48.529-32.7678h33.416l-55.4263 140.232c-7.8106 19.761-27.073 32.768-48.5291 32.768z"/><path d="m81.3123 237 55.4257-140.2318c7.811-19.7615 27.073-32.7678 48.529-32.7678h33.416l-55.426 140.2316c-7.811 19.762-27.073 32.768-48.529 32.768z"/><path d="m162.629 237 55.426-140.2318c7.811-19.7615 27.073-32.7678 48.529-32.7678h33.416l-55.426 140.2316c-7.811 19.762-27.073 32.768-48.529 32.768z"/></g></svg>

<svg width="300" height="300" viewBox="0 0 300 300" fill="none" xmlns="http://www.w3.org/2000/svg">
<path d="M0 237L55.426 96.7678C63.2367 77.0063 82.499 64 103.955 64H137.371L81.9447 204.232C74.1341 223.993 54.8717 237 33.4156 237H0Z" fill="url(#paint0_linear_1_898)"/>
<path d="M81.3123 237L136.738 96.7682C144.549 77.0067 163.811 64.0004 185.267 64.0004H218.683L163.257 204.232C155.446 223.994 136.184 237 114.728 237H81.3123Z" fill="url(#paint1_linear_1_898)"/>
<path d="M162.629 237L218.055 96.7682C225.866 77.0067 245.128 64.0004 266.584 64.0004H300L244.574 204.232C236.763 223.994 217.501 237 196.045 237H162.629Z" fill="url(#paint2_linear_1_898)"/>
<defs>
<linearGradient id="paint0_linear_1_898" x1="300.001" y1="50.7858" x2="1.63474" y2="221.244" gradientUnits="userSpaceOnUse">
<stop stop-color="#FF5CAA"/>
<stop offset="1" stop-color="#FF4E62"/>
</linearGradient>
<linearGradient id="paint1_linear_1_898" x1="300.001" y1="50.7858" x2="1.63474" y2="221.244" gradientUnits="userSpaceOnUse">
<stop stop-color="#FF5CAA"/>
<stop offset="1" stop-color="#FF4E62"/>
</linearGradient>
<linearGradient id="paint2_linear_1_898" x1="300.001" y1="50.7858" x2="1.63474" y2="221.244" gradientUnits="userSpaceOnUse">
<stop stop-color="#FF5CAA"/>
<stop offset="1" stop-color="#FF4E62"/>
</linearGradient>
</defs>
</svg>
